X:1
T:Bishop Faber MacDonald's Strathspey
R:strathspey
C:Natalie MacMaster
D:Natalie MacMaster, Blueprint, 2003
Z:Paul Stewart Cranford (P.S.C.), <http://www.cranfordpub.com>
L:1/8
Q:300
M:C
K:Ador
A|E<A,A,>G FF|G>ED>C B,<G,G,>A|E<A,A,>G F>DD<F|G>ED>B, A,/A,/A, (3A,AA|
E<A,A,>G FF|G>ED>C B,<G,G,>B,|A,>cA<G E<DE<F|G<ED<B, A,/A,/A, A,||
B,|A,>cA<G E>Ac<e|g<agg a<AA<a|g>ef<d e2 (3efg|
a>AAa|b>agB c>ED>F| G>ED>B, A,/A,/A, A,|]
W:Copyrights - Published by MacMaster Music (SOCAN)
